images/3235088.svg

<?xml version="1.0" encoding="UTF-8"?>
<svg xmlns="http://www.w3.org/2000/svg" xmlns:xlink="http://www.w3.org/1999/xlink" width="300pt" height="300pt" viewBox="0 0 300 300" version="1.1">
<defs>
<g>
<symbol overflow="visible" id="glyph0-0">
<path style="stroke:none;" d="M 0.453125 1.59375 L 0.453125 -6.34375 L 4.953125 -6.34375 L 4.953125 1.59375 Z M 0.953125 1.09375 L 4.453125 1.09375 L 4.453125 -5.84375 L 0.953125 -5.84375 Z M 0.953125 1.09375 "/>
</symbol>
<symbol overflow="visible" id="glyph0-1">
<path style="stroke:none;" d="M 0.890625 -6.5625 L 2.078125 -6.5625 L 4.984375 -1.078125 L 4.984375 -6.5625 L 5.84375 -6.5625 L 5.84375 0 L 4.65625 0 L 1.75 -5.484375 L 1.75 0 L 0.890625 0 Z M 0.890625 -6.5625 "/>
</symbol>
<symbol overflow="visible" id="glyph0-2">
<path style="stroke:none;" d="M 3.546875 -5.953125 C 2.898438 -5.953125 2.382812 -5.710938 2 -5.234375 C 1.625 -4.753906 1.4375 -4.101562 1.4375 -3.28125 C 1.4375 -2.445312 1.625 -1.789062 2 -1.3125 C 2.382812 -0.832031 2.898438 -0.59375 3.546875 -0.59375 C 4.191406 -0.59375 4.703125 -0.832031 5.078125 -1.3125 C 5.453125 -1.789062 5.640625 -2.445312 5.640625 -3.28125 C 5.640625 -4.101562 5.453125 -4.753906 5.078125 -5.234375 C 4.703125 -5.710938 4.191406 -5.953125 3.546875 -5.953125 Z M 3.546875 -6.6875 C 4.460938 -6.6875 5.195312 -6.375 5.75 -5.75 C 6.300781 -5.132812 6.578125 -4.3125 6.578125 -3.28125 C 6.578125 -2.238281 6.300781 -1.410156 5.75 -0.796875 C 5.195312 -0.179688 4.460938 0.125 3.546875 0.125 C 2.617188 0.125 1.878906 -0.179688 1.328125 -0.796875 C 0.773438 -1.410156 0.5 -2.238281 0.5 -3.28125 C 0.5 -4.3125 0.773438 -5.132812 1.328125 -5.75 C 1.878906 -6.375 2.617188 -6.6875 3.546875 -6.6875 Z M 3.546875 -6.6875 "/>
</symbol>
</g>
</defs>
<g id="surface35325">
<rect x="0" y="0" width="300" height="300" style="fill:rgb(100%,100%,100%);fill-opacity:1;stroke:none;"/>
<path style="fill:none;stroke-width:1.2;stroke-linecap:butt;stroke-linejoin:miter;stroke:rgb(0%,0%,0%);stroke-opacity:1;stroke-miterlimit:10;" d="M 176.441406 194.78125 L 152.742188 192.71875 "/>
<path style="fill:none;stroke-width:1.2;stroke-linecap:butt;stroke-linejoin:miter;stroke:rgb(0%,0%,0%);stroke-opacity:1;stroke-miterlimit:10;" d="M 190.078125 175.289062 L 176.441406 194.78125 "/>
<path style="fill:none;stroke-width:1.2;stroke-linecap:butt;stroke-linejoin:miter;stroke:rgb(0%,0%,0%);stroke-opacity:1;stroke-miterlimit:10;" d="M 152.742188 192.71875 L 142.679688 171.164062 "/>
<path style="fill:none;stroke-width:1.2;stroke-linecap:butt;stroke-linejoin:miter;stroke:rgb(0%,0%,0%);stroke-opacity:1;stroke-miterlimit:10;" d="M 142.679688 171.164062 L 132.613281 149.609375 "/>
<path style="fill:none;stroke-width:1.2;stroke-linecap:butt;stroke-linejoin:miter;stroke:rgb(0%,0%,0%);stroke-opacity:1;stroke-miterlimit:10;" d="M 142.679688 171.164062 L 156.316406 151.667969 "/>
<path style="fill:none;stroke-width:1.2;stroke-linecap:butt;stroke-linejoin:miter;stroke:rgb(0%,0%,0%);stroke-opacity:1;stroke-miterlimit:10;" d="M 129.042969 190.65625 L 142.679688 171.164062 "/>
<path style="fill:none;stroke-width:1.2;stroke-linecap:butt;stroke-linejoin:miter;stroke:rgb(0%,0%,0%);stroke-opacity:1;stroke-miterlimit:10;" d="M 132.613281 149.609375 L 108.914062 147.546875 "/>
<path style="fill:none;stroke-width:1.2;stroke-linecap:butt;stroke-linejoin:miter;stroke:rgb(0%,0%,0%);stroke-opacity:1;stroke-miterlimit:10;" d="M 108.914062 147.546875 L 102.097656 157.292969 "/>
<path style="fill:none;stroke-width:1.2;stroke-linecap:butt;stroke-linejoin:miter;stroke:rgb(0%,0%,100%);stroke-opacity:1;stroke-miterlimit:10;" d="M 102.097656 157.292969 L 95.277344 167.039062 "/>
<path style="fill:none;stroke-width:1.2;stroke-linecap:butt;stroke-linejoin:miter;stroke:rgb(0%,0%,100%);stroke-opacity:1;stroke-miterlimit:10;" d="M 95.277344 167.039062 L 100.3125 177.816406 "/>
<path style="fill:none;stroke-width:1.2;stroke-linecap:butt;stroke-linejoin:miter;stroke:rgb(0%,0%,0%);stroke-opacity:1;stroke-miterlimit:10;" d="M 100.3125 177.816406 L 105.34375 188.59375 "/>
<path style="fill:none;stroke-width:1.2;stroke-linecap:butt;stroke-linejoin:miter;stroke:rgb(0%,0%,100%);stroke-opacity:1;stroke-miterlimit:10;" d="M 95.277344 167.039062 L 83.429688 166.007812 "/>
<path style="fill:none;stroke-width:1.2;stroke-linecap:butt;stroke-linejoin:miter;stroke:rgb(0%,0%,0%);stroke-opacity:1;stroke-miterlimit:10;" d="M 83.429688 166.007812 L 71.578125 164.976562 "/>
<path style=" stroke:none;fill-rule:nonzero;fill:rgb(100%,100%,100%);fill-opacity:1;" d="M 92.277344 161.539062 L 99.277344 161.539062 L 99.277344 172.539062 L 92.277344 172.539062 Z M 92.277344 161.539062 "/>
<g style="fill:rgb(0%,0%,100%);fill-opacity:1;">
  <use xlink:href="#glyph0-1" x="92.277344" y="170.202148"/>
</g>
<path style="fill:none;stroke-width:1.2;stroke-linecap:butt;stroke-linejoin:miter;stroke:rgb(0%,0%,0%);stroke-opacity:1;stroke-miterlimit:10;" d="M 105.34375 188.59375 L 129.042969 190.65625 "/>
<path style="fill:none;stroke-width:1.2;stroke-linecap:butt;stroke-linejoin:miter;stroke:rgb(0%,0%,0%);stroke-opacity:1;stroke-miterlimit:10;" d="M 69.285156 163.375 L 62.46875 173.121094 "/>
<path style="fill:none;stroke-width:1.2;stroke-linecap:butt;stroke-linejoin:miter;stroke:rgb(100%,0%,0%);stroke-opacity:1;stroke-miterlimit:10;" d="M 62.46875 173.121094 L 55.648438 182.867188 "/>
<path style="fill:none;stroke-width:1.2;stroke-linecap:butt;stroke-linejoin:miter;stroke:rgb(0%,0%,0%);stroke-opacity:1;stroke-miterlimit:10;" d="M 73.871094 166.582031 L 67.054688 176.328125 "/>
<path style="fill:none;stroke-width:1.2;stroke-linecap:butt;stroke-linejoin:miter;stroke:rgb(100%,0%,0%);stroke-opacity:1;stroke-miterlimit:10;" d="M 67.054688 176.328125 L 60.238281 186.074219 "/>
<path style="fill:none;stroke-width:1.2;stroke-linecap:butt;stroke-linejoin:miter;stroke:rgb(0%,0%,0%);stroke-opacity:1;stroke-miterlimit:10;" d="M 71.578125 164.976562 L 61.515625 143.421875 "/>
<path style=" stroke:none;fill-rule:nonzero;fill:rgb(100%,100%,100%);fill-opacity:1;" d="M 49.941406 178.972656 L 57.941406 178.972656 L 57.941406 189.972656 L 49.941406 189.972656 Z M 49.941406 178.972656 "/>
<g style="fill:rgb(100%,0%,0%);fill-opacity:1;">
  <use xlink:href="#glyph0-2" x="49.941406" y="187.635742"/>
</g>
<path style="fill:none;stroke-width:1.2;stroke-linecap:butt;stroke-linejoin:miter;stroke:rgb(0%,0%,0%);stroke-opacity:1;stroke-miterlimit:10;" d="M 61.515625 143.421875 L 38.160156 138.894531 "/>
<path style="fill:none;stroke-width:1.2;stroke-linecap:butt;stroke-linejoin:miter;stroke:rgb(0%,0%,0%);stroke-opacity:1;stroke-miterlimit:10;" d="M 60.246094 137.472656 L 41.5625 133.851562 "/>
<path style="fill:none;stroke-width:1.2;stroke-linecap:butt;stroke-linejoin:miter;stroke:rgb(100%,0%,0%);stroke-opacity:1;stroke-miterlimit:10;" d="M 73.039062 122.609375 L 67.277344 133.015625 "/>
<path style="fill:none;stroke-width:1.2;stroke-linecap:butt;stroke-linejoin:miter;stroke:rgb(0%,0%,0%);stroke-opacity:1;stroke-miterlimit:10;" d="M 67.277344 133.015625 L 61.515625 143.421875 "/>
<path style="fill:none;stroke-width:1.2;stroke-linecap:butt;stroke-linejoin:miter;stroke:rgb(0%,0%,0%);stroke-opacity:1;stroke-miterlimit:10;" d="M 38.160156 138.894531 L 35.25 115.28125 "/>
<path style="fill:none;stroke-width:1.2;stroke-linecap:butt;stroke-linejoin:miter;stroke:rgb(0%,0%,0%);stroke-opacity:1;stroke-miterlimit:10;" d="M 35.25 115.28125 L 56.804688 105.21875 "/>
<path style="fill:none;stroke-width:1.2;stroke-linecap:butt;stroke-linejoin:miter;stroke:rgb(0%,0%,0%);stroke-opacity:1;stroke-miterlimit:10;" d="M 39.773438 119.347656 L 57.019531 111.296875 "/>
<path style="fill:none;stroke-width:1.2;stroke-linecap:butt;stroke-linejoin:miter;stroke:rgb(0%,0%,0%);stroke-opacity:1;stroke-miterlimit:10;" d="M 56.804688 105.21875 L 64.921875 113.914062 "/>
<path style="fill:none;stroke-width:1.2;stroke-linecap:butt;stroke-linejoin:miter;stroke:rgb(100%,0%,0%);stroke-opacity:1;stroke-miterlimit:10;" d="M 64.921875 113.914062 L 73.039062 122.609375 "/>
<path style=" stroke:none;fill-rule:nonzero;fill:rgb(100%,100%,100%);fill-opacity:1;" d="M 69.039062 117.109375 L 77.039062 117.109375 L 77.039062 128.109375 L 69.039062 128.109375 Z M 69.039062 117.109375 "/>
<g style="fill:rgb(100%,0%,0%);fill-opacity:1;">
  <use xlink:href="#glyph0-2" x="69.039062" y="125.772461"/>
</g>
<path style="fill:none;stroke-width:1.2;stroke-linecap:butt;stroke-linejoin:miter;stroke:rgb(0%,0%,0%);stroke-opacity:1;stroke-miterlimit:10;" d="M 156.316406 151.667969 L 168.164062 152.699219 "/>
<path style="fill:none;stroke-width:1.2;stroke-linecap:butt;stroke-linejoin:miter;stroke:rgb(0%,0%,100%);stroke-opacity:1;stroke-miterlimit:10;" d="M 168.164062 152.699219 L 180.015625 153.730469 "/>
<path style="fill:none;stroke-width:1.2;stroke-linecap:butt;stroke-linejoin:miter;stroke:rgb(0%,0%,100%);stroke-opacity:1;stroke-miterlimit:10;" d="M 180.015625 153.730469 L 185.046875 164.511719 "/>
<path style="fill:none;stroke-width:1.2;stroke-linecap:butt;stroke-linejoin:miter;stroke:rgb(0%,0%,0%);stroke-opacity:1;stroke-miterlimit:10;" d="M 185.046875 164.511719 L 190.078125 175.289062 "/>
<path style="fill:none;stroke-width:1.2;stroke-linecap:butt;stroke-linejoin:miter;stroke:rgb(0%,0%,100%);stroke-opacity:1;stroke-miterlimit:10;" d="M 180.015625 153.730469 L 186.832031 143.984375 "/>
<path style="fill:none;stroke-width:1.2;stroke-linecap:butt;stroke-linejoin:miter;stroke:rgb(0%,0%,0%);stroke-opacity:1;stroke-miterlimit:10;" d="M 186.832031 143.984375 L 193.648438 134.238281 "/>
<path style=" stroke:none;fill-rule:nonzero;fill:rgb(100%,100%,100%);fill-opacity:1;" d="M 177.015625 148.230469 L 184.015625 148.230469 L 184.015625 159.230469 L 177.015625 159.230469 Z M 177.015625 148.230469 "/>
<g style="fill:rgb(0%,0%,100%);fill-opacity:1;">
  <use xlink:href="#glyph0-1" x="177.015625" y="156.893555"/>
</g>
<path style="fill:none;stroke-width:1.2;stroke-linecap:butt;stroke-linejoin:miter;stroke:rgb(0%,0%,0%);stroke-opacity:1;stroke-miterlimit:10;" d="M 193.648438 134.238281 L 217.351562 136.300781 "/>
<path style="fill:none;stroke-width:1.2;stroke-linecap:butt;stroke-linejoin:miter;stroke:rgb(0%,0%,0%);stroke-opacity:1;stroke-miterlimit:10;" d="M 217.351562 136.300781 L 227.414062 157.855469 "/>
<path style="fill:none;stroke-width:1.2;stroke-linecap:butt;stroke-linejoin:miter;stroke:rgb(0%,0%,0%);stroke-opacity:1;stroke-miterlimit:10;" d="M 223.429688 136.089844 L 231.480469 153.332031 "/>
<path style="fill:none;stroke-width:1.2;stroke-linecap:butt;stroke-linejoin:miter;stroke:rgb(0%,0%,0%);stroke-opacity:1;stroke-miterlimit:10;" d="M 230.984375 116.808594 L 217.351562 136.300781 "/>
<path style="fill:none;stroke-width:1.2;stroke-linecap:butt;stroke-linejoin:miter;stroke:rgb(0%,0%,0%);stroke-opacity:1;stroke-miterlimit:10;" d="M 227.414062 157.855469 L 251.113281 159.917969 "/>
<path style="fill:none;stroke-width:1.2;stroke-linecap:butt;stroke-linejoin:miter;stroke:rgb(0%,0%,0%);stroke-opacity:1;stroke-miterlimit:10;" d="M 251.113281 159.917969 L 257.933594 150.171875 "/>
<path style="fill:none;stroke-width:1.2;stroke-linecap:butt;stroke-linejoin:miter;stroke:rgb(0%,0%,100%);stroke-opacity:1;stroke-miterlimit:10;" d="M 257.933594 150.171875 L 264.75 140.425781 "/>
<path style="fill:none;stroke-width:1.2;stroke-linecap:butt;stroke-linejoin:miter;stroke:rgb(0%,0%,0%);stroke-opacity:1;stroke-miterlimit:10;" d="M 247.890625 154.761719 L 253.34375 146.964844 "/>
<path style="fill:none;stroke-width:1.2;stroke-linecap:butt;stroke-linejoin:miter;stroke:rgb(0%,0%,100%);stroke-opacity:1;stroke-miterlimit:10;" d="M 253.34375 146.964844 L 258.800781 139.164062 "/>
<path style="fill:none;stroke-width:1.2;stroke-linecap:butt;stroke-linejoin:miter;stroke:rgb(0%,0%,100%);stroke-opacity:1;stroke-miterlimit:10;" d="M 264.75 140.425781 L 259.71875 129.648438 "/>
<path style="fill:none;stroke-width:1.2;stroke-linecap:butt;stroke-linejoin:miter;stroke:rgb(0%,0%,0%);stroke-opacity:1;stroke-miterlimit:10;" d="M 259.71875 129.648438 L 254.6875 118.867188 "/>
<path style=" stroke:none;fill-rule:nonzero;fill:rgb(100%,100%,100%);fill-opacity:1;" d="M 261.75 134.925781 L 268.75 134.925781 L 268.75 145.925781 L 261.75 145.925781 Z M 261.75 134.925781 "/>
<g style="fill:rgb(0%,0%,100%);fill-opacity:1;">
  <use xlink:href="#glyph0-1" x="261.75" y="143.588867"/>
</g>
<path style="fill:none;stroke-width:1.2;stroke-linecap:butt;stroke-linejoin:miter;stroke:rgb(0%,0%,0%);stroke-opacity:1;stroke-miterlimit:10;" d="M 254.6875 118.867188 L 230.984375 116.808594 "/>
<path style="fill:none;stroke-width:1.2;stroke-linecap:butt;stroke-linejoin:miter;stroke:rgb(0%,0%,0%);stroke-opacity:1;stroke-miterlimit:10;" d="M 251.832031 124.238281 L 232.871094 122.589844 "/>
</g>
</svg>

<svg xmlns="http://www.w3.org/2000/svg" xmlns:xlink="http://www.w3.org/1999/xlink" width="300pt" height="300pt" viewBox="0 0 300 300"><defs><symbol overflow="visible"><path d="M.453 1.594v-7.938h4.5v7.938zm.5-.5h3.5v-6.938h-3.5zm0 0"/></symbol><symbol overflow="visible" id="a"><path d="M.89-6.563H2.08l2.906 5.485v-5.484h.86V0H4.656L1.75-5.484V0H.89zm0 0"/></symbol><symbol overflow="visible" id="b"><path d="M3.547-5.953c-.65 0-1.164.242-1.547.72-.375.48-.563 1.13-.563 1.952 0 .835.188 1.49.563 1.967.383.48.898.72 1.547.72.644 0 1.156-.24 1.53-.72.376-.476.564-1.132.564-1.968 0-.822-.187-1.474-.562-1.954-.375-.477-.887-.72-1.53-.72zm0-.734c.914 0 1.648.312 2.203.937.55.617.828 1.438.828 2.47 0 1.042-.277 1.87-.828 2.483-.555.617-1.29.922-2.203.922-.93 0-1.668-.305-2.22-.922C.774-1.41.5-2.237.5-3.28c0-1.033.273-1.853.828-2.47.55-.625 1.29-.938 2.22-.938zm0 0"/></symbol></defs><g><path fill="#fff" d="M0 0h300v300H0z"/><path d="M176.44 194.78l-23.698-2.06M190.078 175.29l-13.637 19.49M152.742 192.72l-10.062-21.556M142.68 171.164l-10.067-21.555M142.68 171.164l13.636-19.496M129.043 190.656l13.637-19.492M132.613 149.61l-23.7-2.063M108.914 147.547l-6.816 9.746" stroke-width="1.2" stroke="#000" stroke-miterlimit="10" fill="none"/><path d="M102.098 157.293l-6.82 9.746M95.277 167.04l5.035 10.776" stroke-width="1.2" stroke="#00f" stroke-miterlimit="10" fill="none"/><path d="M100.313 177.816l5.03 10.778" stroke-width="1.2" stroke="#000" stroke-miterlimit="10" fill="none"/><path d="M95.277 167.04l-11.847-1.032" stroke-width="1.2" stroke="#00f" stroke-miterlimit="10" fill="none"/><path d="M83.43 166.008l-11.852-1.03" stroke-width="1.2" stroke="#000" stroke-miterlimit="10" fill="none"/><path d="M92.277 161.54h7v11h-7zm0 0" fill="#fff"/><use xlink:href="#a" x="92.277" y="170.202" fill="#00f"/><path d="M105.344 188.594l23.7 2.062M69.285 163.375l-6.816 9.746" stroke-width="1.2" stroke="#000" stroke-miterlimit="10" fill="none"/><path d="M62.47 173.12l-6.822 9.747" stroke-width="1.2" stroke="#f00" stroke-miterlimit="10" fill="none"/><path d="M73.87 166.582l-6.815 9.746" stroke-width="1.2" stroke="#000" stroke-miterlimit="10" fill="none"/><path d="M67.055 176.328l-6.817 9.746" stroke-width="1.2" stroke="#f00" stroke-miterlimit="10" fill="none"/><path d="M71.578 164.977l-10.062-21.555" stroke-width="1.2" stroke="#000" stroke-miterlimit="10" fill="none"/><path d="M49.94 178.973h8v11h-8zm0 0" fill="#fff"/><use xlink:href="#b" x="49.941" y="187.636" fill="#f00"/><path d="M61.516 143.422l-23.356-4.527M60.246 137.473l-18.684-3.62" stroke-width="1.2" stroke="#000" stroke-miterlimit="10" fill="none"/><path d="M73.04 122.61l-5.763 10.406" stroke-width="1.2" stroke="#f00" stroke-miterlimit="10" fill="none"/><path d="M67.277 133.016l-5.76 10.406M38.16 138.895l-2.91-23.614M35.25 115.28l21.555-10.06M39.773 119.348l17.247-8.05M56.805 105.22l8.117 8.694" stroke-width="1.2" stroke="#000" stroke-miterlimit="10" fill="none"/><path d="M64.922 113.914l8.117 8.695" stroke-width="1.2" stroke="#f00" stroke-miterlimit="10" fill="none"/><path d="M69.04 117.11h8v11h-8zm0 0" fill="#fff"/><use xlink:href="#b" x="69.039" y="125.772" fill="#f00"/><path d="M156.316 151.668l11.848 1.03" stroke-width="1.2" stroke="#000" stroke-miterlimit="10" fill="none"/><path d="M168.164 152.7l11.852 1.03M180.016 153.73l5.03 10.782" stroke-width="1.2" stroke="#00f" stroke-miterlimit="10" fill="none"/><path d="M185.047 164.512l5.03 10.777" stroke-width="1.2" stroke="#000" stroke-miterlimit="10" fill="none"/><path d="M180.016 153.73l6.816-9.746" stroke-width="1.2" stroke="#00f" stroke-miterlimit="10" fill="none"/><path d="M186.832 143.984l6.816-9.746" stroke-width="1.2" stroke="#000" stroke-miterlimit="10" fill="none"/><path d="M177.016 148.23h7v11h-7zm0 0" fill="#fff"/><use xlink:href="#a" x="177.016" y="156.894" fill="#00f"/><path d="M193.648 134.238l23.704 2.063M217.352 136.3l10.062 21.555M223.43 136.09l8.05 17.242M230.984 116.81l-13.632 19.49M227.414 157.855l23.7 2.063M251.113 159.918l6.82-9.746" stroke-width="1.2" stroke="#000" stroke-miterlimit="10" fill="none"/><path d="M257.934 150.172l6.816-9.746" stroke-width="1.2" stroke="#00f" stroke-miterlimit="10" fill="none"/><path d="M247.89 154.762l5.454-7.797" stroke-width="1.2" stroke="#000" stroke-miterlimit="10" fill="none"/><path d="M253.344 146.965l5.457-7.8M264.75 140.426l-5.03-10.778" stroke-width="1.2" stroke="#00f" stroke-miterlimit="10" fill="none"/><path d="M259.72 129.648l-5.033-10.78" stroke-width="1.2" stroke="#000" stroke-miterlimit="10" fill="none"/><path d="M261.75 134.926h7v11h-7zm0 0" fill="#fff"/><use xlink:href="#a" x="261.75" y="143.589" fill="#00f"/><path d="M254.688 118.867l-23.704-2.058M251.832 124.238l-18.96-1.648" stroke-width="1.2" stroke="#000" stroke-miterlimit="10" fill="none"/></g></svg>
